X:1
T:the Craigellachie Lassies
T:the Craigellachie Lassies
T:William Marshall
C:William Marshall
%%score { ( 1 2 ) ( 3 4 ) }
L:1/8
M:6/8
K:D
V:1 treble 
V:2 treble 
V:3 bass 
V:4 bass 
V:1
 A |{c} d2 d{e} dcB | A>BG{G} F>ED |{c} d2 d d>cd | e>fd c>BG |{c} d2 d{e} d>cB | A>BG{G} F>ED | %7
 EC>A, A,>B,C | D3 D2 |] f/g/ | afd def | gec Ace | fdA GBe | ecA FGA | BGE EFG | AFD DFA | %16
 ECA, A,B,C | D3 D2 f/g/ | afd afd | gec gec | fdA fdA | ecA ecA | BGB dcB | AFA Bcd | %24
 Bgf{f} e>dc | d3 D2 |] %26
V:2
 x | x6 | x6 | x6 | B2 ^G =G3 | x6 | x6 | x6 | x5 |] x | x6 | x6 | x6 | G3 D3 | D3 C3 | D3 x3 | %16
 x6 | x6 | x6 | x6 | x6 | x6 | x6 | x6 | G3 G3 | F3 x2 |] %26
V:3
 z | [D,F,D]2 [D,F,D] [D,G,D]2 [D,G,D] | [D,F,D]2 [D,B,D] [D,A,D]2 [D,F,] | %3
 [D,F,D]2 [D,F,D] [D,F,D]2 [D,F,D] | [G,,G,]2 [E,,E,] [A,,A,]2 [A,,A,] | F,A,D G,B,D | %6
 F,A,D F,A,F, | A,,E,G, A,,E,G, | F,3 F,2 |] z | x2 [F,D] [F,D]2 [F,D] | x2 [A,C] [A,C]2 [A,C] | %12
 D,2 [F,D] [G,,G,]2 [E,,E,] | [A,,A,]2 [A,,A,] [D,A,]E,F, | [G,,G,]2 [E,,E,] [A,,A,]2 [G,,G,] | %15
 [F,,F,]2 [D,,D,] [D,,D,]2 [D,,D,] | [A,,E,G,]2 [A,,E,G,] [A,,E,G,]2 [A,,E,G,] | F,3 F,2 z | %18
{D,,} D,2 [F,D] [F,D]2 [F,D] | A,2 [A,E] [A,E]2 [A,E] |{D,,} D,2 [F,D] [F,D]2 [F,D] | %21
 [A,C]2 [A,E] [A,E]2 [F,D] | [G,D]2 [G,D] [D,B,]A,G, | [D,F,A,]2 [D,F,A,] [G,,G,]2 [F,,F,] | %24
 [G,,G,]2 [E,,E,] [A,,A,]2 [A,,,A,,] | D,,F,,A,, D,2 |] %26
V:4
 x | x6 | x6 | x6 | x6 | D,3 D,3 | D,3 D,3 | A,,3 A,,3 | D,,F,,A,, D,2 |] x | D,6 | E,6 | x6 | x6 | %14
 x6 | x6 | x6 | D,,F,,A,, D,2 z | x6 | x6 | x6 | x6 | x6 | x6 | x6 | x5 |] %26

